X: 15139
T: Gigue A Elorie
R: jig
M: 6/8
K: Dmajor
[M:9/8] zAA|F2D EDC B,CA,|[M:6/8] B,CD EGG|F2D DAA|
[M:9/8] F2D EDC B,CA,|[M:6/8] B,CD FGE|D3:|
ABc|:d3 dcB|ABA F2D|B3 BAG|E3 EFG|F3 FGA|
[1Adc B2A|fdf g/f/ec|BGA Adc:|2 AGF FED|B,CD FEC|DED DED||
|:B,3 G2G|FCD E2D|B,CD FEC|DED C2A,|
B,3 G2G|FCD E2D|B,CD FEC|1 DED DED:|2 DED D3||

